X: 10612
Q: "Andante"
M: 6/8
L: 1/8
K: G
|:\
d>cB d>cB | A>GA B>cd |\
d>cB d>cB | AGA G3 :|\
|:\
d>cB d>cB | A>GA B>cd |\
d>cB e>fHg | B>cA G3 :|


